X:5096
T:Phil Cunningham's
O:england
M:4/4
L:1/8
S:From Sharon Shannon: Sharon Shannon
R:Reel
K:D
D2 (3DDD ADFA | DFAd edfd | edBd AdFA | BdAF GECE |
D2 (3DDD ADFA | DFAd edfd | edBd AdFA |1 BdAF DFAF :|2 BdAF ~D3E |
:F3E FABA | dBBA BdAd | Bbba b3b | abde fefa |
bd (3ddd edBd | AdFD EDB,D | A,D (3DDD DFBF |1 AFEF ~D3E :|2 AFEF DAAF
||


